X:1
T:Title
%%score { ( 1 2 ) | ( 3 4 ) }
L:1/8
M:4/4
K:A
V:1 treble nm="Grand Piano"
V:2 treble 
V:3 bass 
V:4 bass 
V:1
 z4 z2[Q:1/4=100] z z/ F/ | [DFA]2 [^EB]2 [FA]2 D>F | [FA]2 [^EB]2 [FA]2 D>F | %3
 [DFA]2 [DFB]2 [Fc]2 [Fd]2 | [=Gd]4[K:bass][K:treble] z4 | [C=GB]2 [EGc]2 [GB]2 [CE]>[CEG] | %6
 [C=GB]2 [EGc]2 [GB]2 [CE]>[EG] | [Fd]2 c2 B2 [Ec]2 | B4 z4 | [DF]2 B2 d2 c>c | z4 z2 F2 | %11
 [B,DF]2 B2 d2 c2 | B4 [DF]2 [DF]2 | [EA]2 [EG]2 F2 E>E | [EA]2 [EB]2 [Ec]2 [Ec]>[Ed] | %15
 [CAe]2 [EAc]2 [EA]2 [EAc]2 |[M:3/4] [DB]4 z2 |[M:1/4] [A,D]2 | %18
[M:4/4] [DFA]2 [^EB]2 [FA]2 z z/ F/ | [DFA]2 [^EB]2 [FA]2 D>F | [FA]2 [Af]2 [Ae]2 [Ad]2 | %21
 [Ac]4 B2 B>c | d2 A2 F2 =G>A | B2 =G2 z =G, F>G | A2 F2 z4 |[M:7/8] [DE]- [DE]3 z z2 |] %26
V:2
 z4 z2 D2 | x8 | x8 | x8 | z2[K:bass] A,,2[K:treble] [=Gc]2 [CE]>[CEG] | x8 | x8 | x8 | %8
 z2 D2 [A,CA]2 [DF]>[DF] | x8 | B2 [DF]2 [DF]2 D>B, | x8 | x8 | x8 | x8 | x8 |[M:3/4] A2 z2 [CA]2 | %17
[M:1/4] x2 |[M:4/4] z4 z2 D2 | x8 | x8 | x8 | x8 | z4 E2 z2 | z E, z =G, D2 F2 |[M:7/8] z2 C2 D3 |] %26
V:3
 z4 z2 F,>A, | D,2 [D,G,]2 [D,A,]2 F,>[A,D] | z4 z2 [F,A,]2 | D,2 A,,2 [D,A,]2 [A,,A,]2 | A,4 z4 | %5
 E,2 A,,2 [C,A,]2 A,,>A,, | E,2 A,,2 [C,A,]2 [A,,A,]>[A,,A,] | [D,A,]2 [A,E]2 [E,G,D]2 [A,,A,]2 | %8
 [A,E]2 z2 z4 | [B,,B,]2 [D,F,D]2 [F,B,D]2 [F,^A,F]>[F,A,F] | [B,D]2 [B,,B,]2 [B,,B,]2 B,,>B,, | %11
 B,,2 [D,F,D]2 [F,B,D]2 [F,^A,F]2 | [B,D]4 [B,,B,]2 [B,,B,]2 | %13
 [C,A,]2 [C,A,]2 [D,A,D]2 [D,G,]>[D,G,] | [C,A,]2 [B,,G,]2 [A,,A,]2 [A,,A,]>[A,,B,] | %15
 A,,2 A,,2 C,2 A,,2 |[M:3/4] z2[K:treble] G2 A,2 |[M:1/4][K:bass] z z/ F/ |[M:4/4] z4 z2 F,2 | %19
 D,2 [D,G,]2 [D,A,]2 [F,A,]>[F,A,D] | [D,D]2 [D,D]2 [E,C]2 [F,D]2 | %21
 [=G,D]4 [G,D=G]2[K:bass] [G,D]>[G,A,E] | [F,A,D]2 [F,A,D]2 [D,A,D]2 [E,A,D]>[F,A,D] | %23
 [=G,D]2 [E,B,D]2 [A,C]2 [F,A,D]>[E,A,D] | .[D,F,D]2 .[D,F,D]2 [F,A,]2 [D,A,D]2 | %25
[M:7/8] [A,,=G,]- [A,,G,]3 [D,F,]3 |] %26
V:4
 z4 z2 D,2 | z4 z2 D,2 | [D,D]2 [D,G,]2 [D,A,]2 z z/ D/ | x8 | E,2 z2 [E,A,]2 A,,>A,, | x8 | x8 | %7
 x8 | E,2- [E,G,]2 A,,2 B,,>[B,,B,] | x8 | x8 | x8 | x8 | x8 | x8 | x8 |[M:3/4] E,4[K:treble] z2 | %17
[M:1/4][K:bass] F,2 |[M:4/4] D,2 [D,G,]2 [D,A,]2 D,->[D,A,] | x8 | x8 | x6[K:bass] x2 | x8 | x8 | %24
 x8 |[M:7/8] x7 |] %26

